ui/StatusQ/src/assets/img/icons/homepage/node.svg

<svg fill="none" height="24" viewBox="0 0 24 24" width="24" xmlns="http://www.w3.org/2000/svg"><path clip-rule="evenodd" d="m6.00005 2.7c-1.82254 0-3.3 1.47746-3.3 3.3s1.47746 3.3 3.3 3.3 3.3-1.47746 3.3-3.3-1.47746-3.3-3.3-3.3zm-4.7 3.3c0-2.59574 2.10426-4.7 4.7-4.7s4.69995 2.10426 4.69995 4.7c0 1.04533-.3412 2.01095-.91839 2.79153l2.00159 2.00157c1.1515-.9337 2.6188-1.49315 4.2169-1.49315 3.7003 0 6.7 2.99965 6.7 6.70005 0 3.7003-2.9997 6.7-6.7 6.7-3.7004 0-6.70005-2.9997-6.70005-6.7 0-1.5981.55946-3.0654 1.49315-4.2169l-2.00153-2.00161c-.7806.57721-1.74625.91851-2.79162.91851-2.59574 0-4.7-2.10426-4.7-4.7zm14.70005 4.7c-2.9272 0-5.3 2.3728-5.3 5.3 0 2.9271 2.3728 5.3 5.3 5.3 2.9271 0 5.3-2.3729 5.3-5.3 0-2.9272-2.3729-5.3-5.3-5.3z" fill="#09101c" fill-rule="evenodd"/></svg>

<svg width="24" height="24" viewBox="0 0 24 24" fill="none" xmlns="http://www.w3.org/2000/svg">
<g id="24/nodes">
<path id="body" fill-rule="evenodd" clip-rule="evenodd" d="M6.00005 2.7C4.17751 2.7 2.70005 4.17746 2.70005 6C2.70005 7.82254 4.17751 9.3 6.00005 9.3C7.82259 9.3 9.30005 7.82254 9.30005 6C9.30005 4.17746 7.82259 2.7 6.00005 2.7ZM1.30005 6C1.30005 3.40426 3.40431 1.3 6.00005 1.3C8.59579 1.3 10.7 3.40426 10.7 6C10.7 7.04533 10.3588 8.01095 9.78161 8.79153L11.7832 10.7931C12.9347 9.8594 14.402 9.29995 16.0001 9.29995C19.7004 9.29995 22.7001 12.2996 22.7001 16C22.7001 19.7003 19.7004 22.7 16.0001 22.7C12.2997 22.7 9.30005 19.7003 9.30005 16C9.30005 14.4019 9.85951 12.9346 10.7932 11.7831L8.79167 9.78149C8.01107 10.3587 7.04542 10.7 6.00005 10.7C3.40431 10.7 1.30005 8.59574 1.30005 6ZM16.0001 10.7C13.0729 10.7 10.7001 13.0728 10.7001 16C10.7001 18.9271 13.0729 21.3 16.0001 21.3C18.9272 21.3 21.3001 18.9271 21.3001 16C21.3001 13.0728 18.9272 10.7 16.0001 10.7Z" fill="#09101C"/>
</g>
</svg>
